icons/banking/icon_payment-to-company_m_black.svg

<?xml version="1.0" encoding="UTF-8"?>
<svg width="24px" height="24px" viewBox="0 0 24 24" version="1.1" xmlns="http://www.w3.org/2000/svg" xmlns:xlink="http://www.w3.org/1999/xlink">
    <!-- Generator: Sketch 48.2 (47327) - http://www.bohemiancoding.com/sketch -->
    <title>icon_payment-to-company_m_black</title>
    <desc>Created with Sketch.</desc>
    <defs></defs>
    <g id="mobile" stroke="none" stroke-width="1" fill="none" fill-rule="evenodd" transform="translate(-1247.000000, -138.000000)">
        <g id="Headings" transform="translate(64.000000, 77.000000)">
            <g id="icon_category_business__m__white" transform="translate(1183.000000, 61.000000)">
                <g id="ungroup">
                    <rect id="Rectangle-path" x="0" y="0" width="24" height="24"></rect>
                    <g id="a1" opacity="0.4"></g>
                    <path d="M1.5,23.065 L14.5,23.065 L22.5,23.065 C22.776,23.065 23,22.841 23,22.565 L23,11.5 C23,11.224 22.776,11 22.5,11 L15,11 L15,1 C15,0.832 14.916,0.675 14.775,0.583 C14.634,0.491 14.457,0.474 14.303,0.541 L1.303,6.106 C1.119,6.185 1,6.365 1,6.565 L1,22.565 C1,22.842 1.224,23.065 1.5,23.065 L1.5,23.065 Z M15,12 L22,12 L22,22.065 L15,22.065 L15,12 L15,12 Z M2,6.895 L14,1.758 L14,11.5 L14,22.065 L2,22.065 L2,6.895 L2,6.895 Z" id="Shape" fill="#0B1F35"></path>
                    <path d="M17.5,12 C17.776,12 18,11.776 18,11.5 L18,8 C18,7.724 17.776,7.5 17.5,7.5 C17.224,7.5 17,7.724 17,8 L17,11.5 C17,11.776 17.224,12 17.5,12 L17.5,12 Z" id="Shape" fill="#0B1F35" opacity="0.3"></path>
                    <rect id="Rectangle-path" fill="#0B1F35" opacity="0.3" x="5" y="9" width="2" height="3"></rect>
                    <rect id="Rectangle-path" fill="#0B1F35" opacity="0.3" x="9" y="7" width="2" height="3"></rect>
                    <rect id="Rectangle-path" fill="#0B1F35" opacity="0.3" x="17" y="14" width="2" height="3"></rect>
                    <rect id="Rectangle-path" fill="#0B1F35" opacity="0.3" x="5" y="14" width="2" height="3"></rect>
                    <path d="M19.5,9.5 C19.224,9.5 19,9.724 19,10 L19,11.5 C19,11.776 19.224,12 19.5,12 C19.776,12 20,11.776 20,11.5 L20,10 C20,9.724 19.776,9.5 19.5,9.5 L19.5,9.5 Z" id="Shape" fill="#0B1F35" opacity="0.3"></path>
                </g>
            </g>
        </g>
    </g>
</svg>

<svg width="24" height="24" viewBox="0 0 24 24" xmlns="http://www.w3.org/2000/svg"><g fill="none" fill-rule="evenodd"><path d="M0 0h24v24H0z"/><path d="M1.5 23.065h21a.5.5 0 0 0 .5-.5V11.5a.5.5 0 0 0-.5-.5H15V1a.5.5 0 0 0-.697-.459l-13 5.565A.5.5 0 0 0 1 6.565v16a.5.5 0 0 0 .5.5zM15 12h7v10.065h-7V12zM2 6.895l12-5.137v20.307H2V6.895z" fill="#0B1F35"/><path d="M17.5 12a.5.5 0 0 0 .5-.5V8a.5.5 0 0 0-1 0v3.5a.5.5 0 0 0 .5.5zM5 9h2v3H5zm4-2h2v3H9zm8 7h2v3h-2zM5 14h2v3H5zm14.5-4.5a.5.5 0 0 0-.5.5v1.5a.5.5 0 0 0 1 0V10a.5.5 0 0 0-.5-.5z" fill="#0B1F35" opacity=".3"/></g></svg>
